packages/bezier-icons/icons/invert.svg

<svg width="24" height="24" viewBox="0 0 24 24" fill="none" xmlns="http://www.w3.org/2000/svg">
<path fill-rule="evenodd" clip-rule="evenodd" d="M22 12C22 17.5228 17.5228 22 12 22C6.47715 22 2 17.5228 2 12C2 6.47715 6.47715 2 12 2C17.5228 2 22 6.47715 22 12ZM20 12C20 16.4183 16.4183 20 12 20V17C14.7614 17 17 14.7614 17 12C17 9.23858 14.7614 7 12 7V4C16.4183 4 20 7.58172 20 12ZM12 7C9.23858 7 7 9.23858 7 12C7 14.7614 9.23858 17 12 17V7Z" fill="#313234"/>
</svg>

<svg xmlns="http://www.w3.org/2000/svg" width="24" height="24" fill="none" viewBox="0 0 24 24"><path fill="#313234" fill-rule="evenodd" d="M22 12c0 5.523-4.477 10-10 10S2 17.523 2 12 6.477 2 12 2s10 4.477 10 10m-2 0a8 8 0 0 1-8 8v-3a5 5 0 0 0 0-10V4a8 8 0 0 1 8 8m-8-5a5 5 0 0 0 0 10z" clip-rule="evenodd"/></svg>
